images/client-icons/element.svg

<svg width="64" height="64" version="1.1" viewBox="0 0 64 64" xmlns="http://www.w3.org/2000/svg">
 <rect x="0" y="0" width="64" height="64" fill="#0dbd8b" stop-color="#000000" stroke="#000" stroke-dasharray="0.188976, 0.37795299999999998" stroke-width=".18898"/>
 <g clip-rule="evenodd" fill="#fff" fill-rule="evenodd">
  <path d="m25.28 10.88c0-1.5906 1.2894-2.88 2.88-2.88 10.604 0 19.2 8.5961 19.2 19.2 0 1.5906-1.2894 2.88-2.88 2.88s-2.88-1.2894-2.88-2.88c0-7.4227-6.0173-13.44-13.44-13.44-1.5906 0-2.88-1.2894-2.88-2.88z"/>
  <path d="m38.72 53.12c0 1.5906-1.2894 2.88-2.88 2.88-10.604 0-19.2-8.5961-19.2-19.2 0-1.5906 1.2894-2.88 2.88-2.88 1.5905 0 2.88 1.2894 2.88 2.88 0 7.4227 6.0173 13.44 13.44 13.44 1.5906 0 2.88 1.2894 2.88 2.88z"/>
  <path d="m10.88 38.72c-1.5906 0-2.88-1.2894-2.88-2.88 0-10.604 8.5961-19.2 19.2-19.2 1.5906 0 2.88 1.2894 2.88 2.88 0 1.5905-1.2894 2.88-2.88 2.88-7.4227 0-13.44 6.0173-13.44 13.44 0 1.5906-1.2894 2.88-2.88 2.88z"/>
  <path d="m53.12 25.28c1.5906 0 2.88 1.2894 2.88 2.88 0 10.604-8.5961 19.2-19.2 19.2-1.5906 0-2.88-1.2894-2.88-2.88 0-1.5905 1.2894-2.88 2.88-2.88 7.4227 0 13.44-6.0173 13.44-13.44 0-1.5906 1.2894-2.88 2.88-2.88z"/>
 </g>
</svg>

<svg width="64" height="64" viewBox="0 0 64 64" fill="none" xmlns="http://www.w3.org/2000/svg">
<path fill-rule="evenodd" clip-rule="evenodd" d="M25.28 10.88C25.28 9.28942 26.5694 8 28.16 8C38.7639 8 47.36 16.5961 47.36 27.2C47.36 28.7906 46.0706 30.08 44.48 30.08C42.8894 30.08 41.6 28.7906 41.6 27.2C41.6 19.7773 35.5827 13.76 28.16 13.76C26.5694 13.76 25.28 12.4706 25.28 10.88Z" fill="#0DBD8B"/>
<path fill-rule="evenodd" clip-rule="evenodd" d="M38.72 53.12C38.72 54.7106 37.4306 56 35.84 56C25.2361 56 16.64 47.4039 16.64 36.8C16.64 35.2094 17.9294 33.92 19.52 33.92C21.1105 33.92 22.4 35.2094 22.4 36.8C22.4 44.2227 28.4173 50.24 35.84 50.24C37.4306 50.24 38.72 51.5294 38.72 53.12Z" fill="#0DBD8B"/>
<path fill-rule="evenodd" clip-rule="evenodd" d="M10.88 38.72C9.28942 38.72 8 37.4306 8 35.84C8 25.2361 16.5961 16.64 27.2 16.64C28.7906 16.64 30.08 17.9294 30.08 19.52C30.08 21.1105 28.7906 22.4 27.2 22.4C19.7773 22.4 13.76 28.4173 13.76 35.84C13.76 37.4306 12.4706 38.72 10.88 38.72Z" fill="#0DBD8B"/>
<path fill-rule="evenodd" clip-rule="evenodd" d="M53.12 25.28C54.7106 25.28 56 26.5694 56 28.16C56 38.7639 47.4039 47.36 36.8 47.36C35.2094 47.36 33.92 46.0706 33.92 44.48C33.92 42.8895 35.2094 41.6 36.8 41.6C44.2227 41.6 50.24 35.5827 50.24 28.16C50.24 26.5694 51.5294 25.28 53.12 25.28Z" fill="#0DBD8B"/>
</svg>
